X: 341
T: Double Kisses
R: reel
M: C
L: 1/8
Z: 2012 John Chambers <jc:trillian.mit.edu>
B: J. Anderson "Budget of Strathspeys, Reels and Country Dances" (Early 1800s) p.34 #1
F: http://imslp.org/wiki/Anderson%27s_Budget_of_Strathspeys,_Reels_and_Country_Dances_(Various)
K: C
|:\
c2(GE) c2(ce) | c2(GE) dDDe | c2(GE) cdec | fagf ecc :| e |
(gc).g.e (gc).c.e | gcge adde | (gc).g.e (gc).e.c | Aagf ecce |
gcge gcce | gcge add(f/g/) | afge fdec | Aagf ecce |]

%%sep 2 1 500
%%sep 1 1 500

